src/assets/icons/donate_colored.svg

<svg width="41" height="40" viewBox="0 0 41 40" data-token-name="donate_colored" fill="none" xmlns="http://www.w3.org/2000/svg">
<rect x="0.333313" width="40" height="40" rx="20" fill="#FF6681"/>
<path d="M13.6666 30H11.4444C10.8311 30 10.3333 29.5022 10.3333 28.8889V22.2222C10.3333 21.6089 10.8311 21.1111 11.4444 21.1111H13.6666C14.28 21.1111 14.7778 21.6089 14.7778 22.2222V28.8889C14.7778 29.5022 14.28 30 13.6666 30Z" stroke="white" stroke-width="1.5" stroke-linecap="round" stroke-linejoin="round" fill="none"/>
<path d="M21.445 25.5556H24.0372C24.5183 25.5556 24.9861 25.4 25.3705 25.1112L28.055 23.0978C28.725 22.5956 29.6628 22.6623 30.255 23.2545C30.9128 23.9123 30.9128 24.9778 30.255 25.6345L27.9517 27.9378C27.3317 28.5578 26.5405 28.9812 25.6805 29.1534L22.425 29.8045C21.7794 29.9334 21.1139 29.9178 20.475 29.7578L17.5305 29.0223C17.1783 28.9334 16.8172 28.8889 16.4539 28.8889H14.7783" fill="none" stroke="white" stroke-width="1.5" stroke-linecap="round" stroke-linejoin="round"/>
<path d="M21.445 25.5555H23.095C24.025 25.5555 24.7783 24.8022 24.7783 23.8722V23.5355C24.7783 22.7633 24.2528 22.09 23.5039 21.9033L20.9572 21.2666C20.5428 21.1633 20.1183 21.1111 19.6917 21.1111C18.6617 21.1111 17.6539 21.4155 16.7972 21.9878L14.7783 23.3333" stroke="white" stroke-width="1.5" stroke-linecap="round" stroke-linejoin="round" fill="none"/>
<path d="M24.5 9.40275C24.9465 8.899 25.7191 8.33337 26.8955 8.33337C28.9534 8.33337 30.3333 10.1959 30.3333 11.9302C30.3333 15.5559 25.6524 18.3334 24.5 18.3334C23.3476 18.3334 18.6666 15.5559 18.6666 11.9302C18.6666 10.1959 20.0465 8.33337 22.1044 8.33337C23.2808 8.33337 24.0534 8.899 24.5 9.40275Z" stroke="white" stroke-width="1.5" stroke-linecap="round" fill="none" stroke-linejoin="round"/>
</svg>

<svg xmlns="http://www.w3.org/2000/svg" data-token-name="donate_colored" width="41" height="40" fill="none"><rect width="40" height="40" x=".333" fill="#FF6681" rx="20"/><path stroke="#fff" stroke-linecap="round" stroke-linejoin="round" fill="none" stroke-width="1.5" d="M13.667 30h-2.223a1.112 1.112 0 0 1-1.11-1.111v-6.667c0-.613.497-1.11 1.11-1.11h2.223c.613 0 1.11.497 1.11 1.11v6.667c0 .613-.497 1.111-1.11 1.111ZM21.445 25.556h2.592c.481 0 .95-.156 1.334-.445l2.684-2.013a1.684 1.684 0 0 1 2.2 2.537l-2.303 2.303a4.45 4.45 0 0 1-2.272 1.215l-3.255.652a4.443 4.443 0 0 1-1.95-.047l-2.945-.736a4.395 4.395 0 0 0-1.076-.133h-1.676"/><path stroke="#fff" stroke-linecap="round" fill="none" stroke-linejoin="round" stroke-width="1.5" d="M21.445 25.555h1.65c.93 0 1.683-.753 1.683-1.683v-.337c0-.772-.525-1.445-1.274-1.632l-2.547-.636a5.23 5.23 0 0 0-4.16.72l-2.019 1.346M24.5 9.403a3.122 3.122 0 0 1 2.395-1.07c2.058 0 3.438 1.863 3.438 3.597 0 3.626-4.68 6.403-5.833 6.403-1.152 0-5.833-2.777-5.833-6.403 0-1.734 1.38-3.597 3.437-3.597 1.177 0 1.95.566 2.396 1.07Z"/></svg>
